Catalina-dark/apps/22/x-office-calendar.svg

<?xml version="1.0" encoding="UTF-8" standalone="no"?>
<!-- Created with Inkscape (http://www.inkscape.org/) -->

<svg
   xmlns:dc="http://purl.org/dc/elements/1.1/"
   xmlns:cc="http://creativecommons.org/ns#"
   xmlns:rdf="http://www.w3.org/1999/02/22-rdf-syntax-ns#"
   xmlns:svg="http://www.w3.org/2000/svg"
   xmlns="http://www.w3.org/2000/svg"
   xmlns:sodipodi="http://sodipodi.sourceforge.net/DTD/sodipodi-0.dtd"
   xmlns:inkscape="http://www.inkscape.org/namespaces/inkscape"
   width="22"
   height="22"
   id="svg3752"
   version="1.1"
   inkscape:version="0.92.4 (unknown)"
   sodipodi:docname="x-office-calendar.svg"
   inkscape:export-filename="/home/silerio/Imágenes/iconos/email2.png"
   inkscape:export-xdpi="90"
   inkscape:export-ydpi="90">
  <defs
     id="defs3754">
    <clipPath
       clipPathUnits="userSpaceOnUse"
       id="clipPath4355">
      <path
         sodipodi:nodetypes="ccccccccccc"
         inkscape:connector-curvature="0"
         id="path4357"
         d="m 413.15743,-331.13406 -86.52622,-80.17627 -86.52623,80.17627 -86.52622,-80.17627 -86.526225,80.17627 V -10.2615 l 86.526225,-80.17627 86.52622,80.17627 86.52623,-80.17627 86.52622,80.17627 z"
         style="fill:#fcc199;fill-opacity:1;stroke:none" />
    </clipPath>
    <clipPath
       clipPathUnits="userSpaceOnUse"
       id="clipPath4087">
      <path
         sodipodi:nodetypes="cccsccccsccc"
         inkscape:connector-curvature="0"
         id="path4089"
         d="m 255.40592,22.97148 c -2.28704,0.0508 -4.54873,0.89886 -6.30518,2.36444 L 67.564098,177.67826 c -2.574541,2.1548 -3.967229,5.64239 -3.585104,8.97787 0.382126,3.33547 2.527474,6.41774 5.522634,7.93446 l 186.068482,94.21646 c 2.84639,1.4447 6.38151,1.4447 9.2279,0 l 186.06847,-94.21646 c 3.03867,-1.52923 5.2057,-4.66969 5.55708,-8.05326 0.35137,-3.38358 -1.12414,-6.90229 -3.78375,-9.02327 L 262.03949,25.20456 c -1.85909,-1.48849 -4.2528,-2.29429 -6.63357,-2.23308 z"
         style="color:#000000;font-style:normal;font-variant:normal;font-weight:normal;font-stretch:normal;font-size:medium;line-height:normal;font-family:Sans;-inkscape-font-specification:Sans;text-indent:0;text-align:start;text-decoration:none;text-decoration-line:none;letter-spacing:normal;word-spacing:normal;text-transform:none;writing-mode:lr-tb;direction:ltr;baseline-shift:baseline;text-anchor:start;display:inline;overflow:visible;visibility:visible;fill:#c87137;fill-opacity:1;fill-rule:nonzero;stroke:none;stroke-width:19.39999962;marker:none;enable-background:accumulate" />
    </clipPath>
    <clipPath
       clipPathUnits="userSpaceOnUse"
       id="clipPath4139">
      <path
         sodipodi:nodetypes="scssssssss"
         inkscape:connector-curvature="0"
         id="path4141"
         d="M 533.97954,176.85017 731.76001,305.5436 929.54048,176.85017 c 13.30694,-8.65867 28.65703,12.78103 28.65703,28.65703 v 207.2301 c 0,15.87599 -12.78103,28.65703 -28.65703,28.65703 H 533.97954 c -15.876,0 -28.65703,-12.78104 -28.65703,-28.65703 V 205.5072 c 0,-15.876 12.78103,-28.65703 28.65703,-28.65703 z"
         style="color:#000000;display:inline;overflow:visible;visibility:visible;fill:#deaa87;fill-opacity:1;fill-rule:evenodd;stroke:none;stroke-width:7;marker:none;enable-background:accumulate" />
    </clipPath>
  </defs>
  <sodipodi:namedview
     id="base"
     pagecolor="#ffffff"
     bordercolor="#666666"
     borderopacity="1.0"
     inkscape:pageopacity="0.0"
     inkscape:pageshadow="2"
     inkscape:zoom="32"
     inkscape:cx="11.733322"
     inkscape:cy="8.843371"
     inkscape:current-layer="layer1"
     showgrid="true"
     inkscape:grid-bbox="true"
     inkscape:document-units="px"
     inkscape:window-width="1920"
     inkscape:window-height="1016"
     inkscape:window-x="0"
     inkscape:window-y="27"
     inkscape:window-maximized="1"
     units="px"
     width="512px"
     showguides="true"
     inkscape:guide-bbox="true" />
  <metadata
     id="metadata3757">
    <rdf:RDF>
      <cc:Work
         rdf:about="">
        <dc:format>image/svg+xml</dc:format>
        <dc:type
           rdf:resource="http://purl.org/dc/dcmitype/StillImage" />
        <dc:title />
      </cc:Work>
    </rdf:RDF>
  </metadata>
  <g
     id="layer1"
     inkscape:label="Layer 1"
     inkscape:groupmode="layer"
     transform="translate(0,-25.99996)">
    <path
       style="opacity:1;fill:#000000;fill-opacity:0.06222222;stroke:none;stroke-width:6.66106272;stroke-miterlimit:4;stroke-dasharray:none;stroke-opacity:0.01176471"
       d="M 4.8632812 5.2695312 C 4.7104869 5.2695313 4.5656973 5.2997624 4.4335938 5.3554688 C 4.3013071 5.4113582 4.1820162 5.493765 4.0820312 5.59375 C 3.9828177 5.6932547 3.9011963 5.8117613 3.8457031 5.9433594 C 3.7899968 6.0754629 3.7597656 6.2202524 3.7597656 6.3730469 L 3.7597656 8.0390625 L 17.949219 8.0390625 L 17.949219 6.375 C 17.949219 6.3743322 17.94922 6.3737144 17.949219 6.3730469 C 17.949219 6.2209202 17.918527 6.076954 17.863281 5.9453125 C 17.863068 5.9448089 17.863495 5.9438626 17.863281 5.9433594 C 17.751549 5.6799937 17.538756 5.4672011 17.275391 5.3554688 C 17.274813 5.3552253 17.274015 5.3557113 17.273438 5.3554688 C 17.141729 5.2998236 16.997766 5.2698 16.845703 5.2695312 L 16.648438 5.2695312 L 16.648438 5.4082031 C 16.648438 6.1704601 16.03374 6.7851562 15.271484 6.7851562 C 14.509227 6.7851562 13.896484 6.1704601 13.896484 5.4082031 L 13.896484 5.2695312 L 12.230469 5.2695312 L 12.230469 5.4082031 C 12.230469 6.1704601 11.615774 6.7851562 10.853516 6.7851562 C 10.091259 6.7851562 9.4785156 6.1704601 9.4785156 5.4082031 L 9.4785156 5.2695312 L 7.8105469 5.2695312 L 7.8105469 5.4082031 C 7.8105469 6.1704601 7.1978037 6.7851562 6.4355469 6.7851562 C 5.6732901 6.7851562 5.0605469 6.1704601 5.0605469 5.4082031 L 5.0605469 5.2695312 L 4.8632812 5.2695312 z M 3.7597656 9.2617188 L 3.7597656 18.355469 C 3.7597656 18.661059 3.8825495 18.937237 4.0820312 19.136719 C 4.2815129 19.3362 4.5576924 19.458984 4.8632812 19.458984 L 16.845703 19.458984 C 16.998498 19.458984 17.143287 19.428753 17.275391 19.373047 C 17.317961 19.355096 17.349051 19.31981 17.388672 19.296875 C 17.47135 19.248717 17.557791 19.203928 17.625 19.136719 C 17.724985 19.036734 17.807392 18.917443 17.863281 18.785156 C 17.918988 18.653053 17.949219 18.508264 17.949219 18.355469 L 17.949219 9.2617188 L 3.7597656 9.2617188 z "
       transform="translate(0,25.99996)"
       id="path830" />
    <g
       aria-label="@"
       style="font-style:normal;font-variant:normal;font-weight:bold;font-stretch:normal;font-size:9.7591629px;line-height:1.25;font-family:sans-serif;-inkscape-font-specification:'sans-serif Bold';letter-spacing:0px;word-spacing:0px;fill:#000000;fill-opacity:1;stroke:none;stroke-width:0.24397908"
       id="text912"
       transform="translate(-0.1880363,-0.4737693)" />
    <path
       style="opacity:1;fill:#000000;fill-opacity:0.4311111;stroke:none;stroke-width:6.66106272;stroke-miterlimit:4;stroke-dasharray:none;stroke-opacity:0.01176471"
       d="M 4.0292969 3.6054688 C 2.956842 3.6054688 2.09375 4.4685616 2.09375 5.5410156 L 2.09375 19.189453 C 2.09375 20.261909 2.956842 21.125 4.0292969 21.125 L 17.677734 21.125 C 18.750189 21.125 19.613281 20.261909 19.613281 19.189453 L 19.613281 5.5410156 C 19.613281 4.4685616 18.750189 3.6054687 17.677734 3.6054688 L 16.648438 3.6054688 L 16.648438 5.2695312 L 16.845703 5.2695312 C 17.456882 5.2695312 17.949219 5.7618689 17.949219 6.3730469 L 17.949219 8.0390625 L 3.7597656 8.0390625 L 3.7597656 6.3730469 C 3.7597656 5.7618689 4.2521037 5.2695313 4.8632812 5.2695312 L 5.0605469 5.2695312 L 5.0605469 3.6054688 L 4.0292969 3.6054688 z M 7.8105469 3.6054688 L 7.8105469 5.2695312 L 9.4785156 5.2695312 L 9.4785156 3.6054688 L 7.8105469 3.6054688 z M 12.230469 3.6054688 L 12.230469 5.2695312 L 13.896484 5.2695312 L 13.896484 3.6054688 L 12.230469 3.6054688 z M 3.7597656 9.2617188 L 17.949219 9.2617188 L 17.949219 18.355469 C 17.949219 18.966649 17.456882 19.458984 16.845703 19.458984 L 4.8632812 19.458984 C 4.2521036 19.458984 3.7597656 18.966649 3.7597656 18.355469 L 3.7597656 9.2617188 z "
       transform="translate(0,25.99996)"
       id="rect953" />
    <g
       transform="matrix(0.32434464,0,0,0.32434464,1.2101296,28.796769)"
       id="g997"
       style="font-style:normal;font-variant:normal;font-weight:normal;font-stretch:normal;font-size:40px;line-height:1.25;font-family:'DejaVu Sans';-inkscape-font-specification:'DejaVu Sans';letter-spacing:0px;word-spacing:0px;fill:#000000;fill-opacity:1;stroke:none"
       aria-label="14" />
    <path
       style="opacity:1;fill:#000000;fill-opacity:0.62666667;stroke:none;stroke-width:5.87057018;stroke-miterlimit:4;stroke-dasharray:none;stroke-opacity:0.01176471"
       d="m 6.4355258,27.28121 c -0.7622568,0 -1.3759149,0.613659 -1.3759149,1.375915 v 2.75183 c 0,0.762257 0.6136581,1.375914 1.3759149,1.375914 0.7622568,0 1.3759149,-0.613657 1.3759149,-1.375914 v -2.75183 c 0,-0.762256 -0.6136581,-1.375915 -1.3759149,-1.375915 z m 4.4182152,0 c -0.762257,0 -1.3759145,0.613659 -1.3759145,1.375915 v 2.75183 c 0,0.762257 0.6136575,1.375914 1.3759145,1.375914 0.762258,0 1.375915,-0.613657 1.375915,-1.375914 v -2.75183 c 0,-0.762256 -0.613657,-1.375915 -1.375915,-1.375915 z m 4.418216,0 c -0.762257,0 -1.375915,0.613659 -1.375915,1.375915 v 2.75183 c 0,0.762257 0.613658,1.375914 1.375915,1.375914 0.762256,0 1.375915,-0.613657 1.375915,-1.375914 v -2.75183 c 0,-0.762256 -0.613659,-1.375915 -1.375915,-1.375915 z"
       id="rect835"
       inkscape:connector-curvature="0" />
    <path
       style="color:#000000;font-style:normal;font-variant:normal;font-weight:normal;font-stretch:normal;font-size:medium;line-height:normal;font-family:sans-serif;font-variant-ligatures:normal;font-variant-position:normal;font-variant-caps:normal;font-variant-numeric:normal;font-variant-alternates:normal;font-feature-settings:normal;text-indent:0;text-align:start;text-decoration:none;text-decoration-line:none;text-decoration-style:solid;text-decoration-color:#000000;letter-spacing:normal;word-spacing:normal;text-transform:none;writing-mode:lr-tb;direction:ltr;text-orientation:mixed;dominant-baseline:auto;baseline-shift:baseline;text-anchor:start;white-space:normal;shape-padding:0;clip-rule:nonzero;display:inline;overflow:visible;visibility:visible;opacity:1;isolation:auto;mix-blend-mode:normal;color-interpolation:sRGB;color-interpolation-filters:linearRGB;solid-color:#000000;solid-opacity:1;vector-effect:none;fill:#000000;fill-opacity:0.33333334;fill-rule:nonzero;stroke:none;stroke-width:1.11255848px;stroke-linecap:butt;stroke-linejoin:miter;stroke-miterlimit:4;stroke-dasharray:none;stroke-dashoffset:0;stroke-opacity:1;color-rendering:auto;image-rendering:auto;shape-rendering:auto;text-rendering:auto;enable-background:accumulate"
       d="M 9.0664062,37.328125 7.1777344,38.302734 7.6875,39.291016 7.953125,39.154297 v 4.511719 h 1.1132812 z"
       id="path854"
       inkscape:connector-curvature="0" />
    <path
       style="color:#000000;font-style:normal;font-variant:normal;font-weight:normal;font-stretch:normal;font-size:medium;line-height:normal;font-family:sans-serif;font-variant-ligatures:normal;font-variant-position:normal;font-variant-caps:normal;font-variant-numeric:normal;font-variant-alternates:normal;font-feature-settings:normal;text-indent:0;text-align:start;text-decoration:none;text-decoration-line:none;text-decoration-style:solid;text-decoration-color:#000000;letter-spacing:normal;word-spacing:normal;text-transform:none;writing-mode:lr-tb;direction:ltr;text-orientation:mixed;dominant-baseline:auto;baseline-shift:baseline;text-anchor:start;white-space:normal;shape-padding:0;clip-rule:nonzero;display:inline;overflow:visible;visibility:visible;opacity:1;isolation:auto;mix-blend-mode:normal;color-interpolation:sRGB;color-interpolation-filters:linearRGB;solid-color:#000000;solid-opacity:1;vector-effect:none;fill:#000000;fill-opacity:0.33333334;fill-rule:nonzero;stroke:none;stroke-width:1.11255848px;stroke-linecap:butt;stroke-linejoin:bevel;stroke-miterlimit:4;stroke-dasharray:none;stroke-dashoffset:0;stroke-opacity:1;color-rendering:auto;image-rendering:auto;shape-rendering:auto;text-rendering:auto;enable-background:accumulate"
       d="m 12.703125,37.089844 -2.8867188,3.546875 0.4316408,0.908203 h 2.330078 v 2.121094 h 1.111328 v -2.121094 h 0.591797 v -1.113281 h -0.591797 v -2.990235 z m -0.125,1.916015 v 1.425782 h -1.160156 z"
       id="path856"
       inkscape:connector-curvature="0" />
  </g>
</svg>

<svg width="22" height="22" version="1.1" xmlns="http://www.w3.org/2000/svg">
<g transform="translate(0 -26)">
<path transform="translate(0 26)" d="m4.8633 5.2695c-0.15279 1e-7 -0.29758 0.030231-0.42969 0.085938-0.13229 0.055889-0.25158 0.1383-0.35156 0.23828-0.099214 0.099505-0.18083 0.21801-0.23633 0.34961-0.055706 0.1321-0.085938 0.27689-0.085938 0.42969v1.666h14.189v-1.6641c0-6.678e-4 1e-6 -0.0012856 0-0.0019531 0-0.15213-0.030692-0.29609-0.085938-0.42773-2.13e-4 -5.036e-4 2.14e-4 -0.0014499 0-0.0019531-0.11173-0.26337-0.32452-0.47616-0.58789-0.58789-5.78e-4 -2.435e-4 -0.001376 2.425e-4 -0.001953 0-0.13171-0.055645-0.27567-0.085669-0.42774-0.085938h-0.19726v0.13867c0 0.76226-0.6147 1.377-1.377 1.377-0.76226 0-1.375-0.6147-1.375-1.377v-0.13867h-1.666v0.13867c0 0.76226-0.6147 1.377-1.377 1.377-0.76226 0-1.375-0.6147-1.375-1.377v-0.13867h-1.668v0.13867c0 0.76226-0.61274 1.377-1.375 1.377s-1.375-0.6147-1.375-1.377v-0.13867h-0.19727zm-1.1035 3.9922v9.0938c0 0.30559 0.12278 0.58177 0.32227 0.78125 0.19948 0.19948 0.47566 0.32226 0.78125 0.32226h11.982c0.1528 0 0.29758-0.030231 0.42969-0.085937 0.04257-0.017951 0.07366-0.053237 0.11328-0.076172 0.082678-0.048158 0.16912-0.092947 0.23633-0.16016 0.099985-0.099985 0.18239-0.21928 0.23828-0.35156 0.055707-0.1321 0.085938-0.27689 0.085938-0.42969v-9.0938h-14.189z" fill-opacity=".062222"/>
<path transform="translate(0 26)" d="m4.0293 3.6055c-1.0725 0-1.9355 0.86309-1.9355 1.9355v13.648c0 1.0725 0.86309 1.9355 1.9355 1.9355h13.648c1.0725 0 1.9355-0.86309 1.9355-1.9355v-13.648c0-1.0725-0.86309-1.9355-1.9355-1.9355h-1.0293v1.6641h0.19726c0.61118 0 1.1035 0.49234 1.1035 1.1035v1.666h-14.189v-1.666c0-0.61118 0.49234-1.1035 1.1035-1.1035h0.19727v-1.6641h-1.0312zm3.7812 0v1.6641h1.668v-1.6641h-1.668zm4.4199 0v1.6641h1.666v-1.6641h-1.666zm-8.4707 5.6562h14.189v9.0938c0 0.61118-0.49234 1.1035-1.1035 1.1035h-11.982c-0.61118 0-1.1035-0.49234-1.1035-1.1035v-9.0938z" fill-opacity=".43111"/>
<path d="m6.4355 27.281c-0.76226 0-1.3759 0.61366-1.3759 1.3759v2.7518c0 0.76226 0.61366 1.3759 1.3759 1.3759s1.3759-0.61366 1.3759-1.3759v-2.7518c0-0.76226-0.61366-1.3759-1.3759-1.3759zm4.4182 0c-0.76226 0-1.3759 0.61366-1.3759 1.3759v2.7518c0 0.76226 0.61366 1.3759 1.3759 1.3759 0.76226 0 1.3759-0.61366 1.3759-1.3759v-2.7518c0-0.76226-0.61366-1.3759-1.3759-1.3759zm4.4182 0c-0.76226 0-1.3759 0.61366-1.3759 1.3759v2.7518c0 0.76226 0.61366 1.3759 1.3759 1.3759 0.76226 0 1.3759-0.61366 1.3759-1.3759v-2.7518c0-0.76226-0.61366-1.3759-1.3759-1.3759z" fill-opacity=".62667"/>
<path d="m9.0664 37.328-1.8887 0.97461 0.50977 0.98828 0.26562-0.13672v4.5117h1.1133z" color="#000000" color-rendering="auto" dominant-baseline="auto" fill-opacity=".33333" image-rendering="auto" shape-rendering="auto" solid-color="#000000" style="font-feature-settings:normal;font-variant-alternates:normal;font-variant-caps:normal;font-variant-ligatures:normal;font-variant-numeric:normal;font-variant-position:normal;isolation:auto;mix-blend-mode:normal;shape-padding:0;text-decoration-color:#000000;text-decoration-line:none;text-decoration-style:solid;text-indent:0;text-orientation:mixed;text-transform:none;white-space:normal"/>
<path d="m12.703 37.09-2.8867 3.5469 0.43164 0.9082h2.3301v2.1211h1.1113v-2.1211h0.5918v-1.1133h-0.5918v-2.9902zm-0.125 1.916v1.4258h-1.1602z" color="#000000" color-rendering="auto" dominant-baseline="auto" fill-opacity=".33333" image-rendering="auto" shape-rendering="auto" solid-color="#000000" style="font-feature-settings:normal;font-variant-alternates:normal;font-variant-caps:normal;font-variant-ligatures:normal;font-variant-numeric:normal;font-variant-position:normal;isolation:auto;mix-blend-mode:normal;shape-padding:0;text-decoration-color:#000000;text-decoration-line:none;text-decoration-style:solid;text-indent:0;text-orientation:mixed;text-transform:none;white-space:normal"/>
</g>
</svg>
